contents/icons/database.svg

<svg height="1024" width="768" xmlns="http://www.w3.org/2000/svg">
  <path d="M384 960C171.969 960 0 902.625 0 832c0-38.625 0-80.875 0-128 0-11.125 5.562-21.688 13.562-32C56.375 727.125 205.25 768 384 768s327.625-40.875 370.438-96c8 10.312 13.562 20.875 13.562 32 0 37.062 0 76.375 0 128C768 902.625 596 960 384 960zM384 704C171.969 704 0 646.625 0 576c0-38.656 0-80.844 0-128 0-6.781 2.562-13.375 6-19.906l0 0C7.938 424 10.5 419.969 13.562 416 56.375 471.094 205.25 512 384 512s327.625-40.906 370.438-96c3.062 3.969 5.625 8 7.562 12.094l0 0c3.438 6.531 6 13.125 6 19.906 0 37.062 0 76.344 0 128C768 646.625 596 704 384 704zM384 448C171.969 448 0 390.656 0 320c0-20.219 0-41.594 0-64 0-20.344 0-41.469 0-64C0 121.34400000000005 171.969 64 384 64c212 0 384 57.344 384 128 0 19.969 0 41.156 0 64 0 19.594 0 40.25 0 64C768 390.656 596 448 384 448zM384 128c-141.375 0-256 28.594-256 64s114.625 64 256 64 256-28.594 256-64S525.375 128 384 128z" />
</svg>

<svg xmlns="http://www.w3.org/2000/svg" width="768" height="1024">
  <path d="M384 960C172 960 0 902.6 0 832V704c0-11 5.6-21.7 13.6-32 42.8 55 191.6 96 370.4 96s327.6-41 370.4-96c8 10.3 13.6 21 13.6 32v128c0 70.6-172 128-384 128zm0-256C172 704 0 646.6 0 576V448c0-6.8 2.6-13.4 6-20 2-4 4.5-8 7.6-12 42.8 55 191.6 96 370.4 96s327.6-41 370.4-96c3 4 5.7 8 7.6 12 3.4 6.6 6 13.2 6 20v128c0 70.6-172 128-384 128zm0-256C172 448 0 390.7 0 320V192C0 121.3 172 64 384 64s384 57.3 384 128v128c0 70.7-172 128-384 128zm0-320c-141.4 0-256 28.6-256 64s114.6 64 256 64 256-28.6 256-64-114.6-64-256-64z"/>
</svg>
